X:159
T:Laugh and lay down
M:2/4
L:1/8
B:Thompson's Compleat Collection of 200 Favourite Country Dances, vol. 2 (London, 1765)
Z:Transcribed and edited by Flynn Titford-Mock, 2007
Z:abc's:AK/Fiddler's Companion
K:A
(d<c)(B<A) | fdcB | (d<c)(B<A) | BE "tr"E2 | (d<c)(B<A) | fdcB | cABG | A2 [A,2A2] :|
|: "tr"ag"tr"ag | aecA | "tr"ag"tr"ag | afec | "tr"ag"tr"ag | afed | ce EG | A2 [A,2A2] :|

